X:171 
T:Padraig O'Keeffe's Slide (1) 
B:CRE3.046 (SleamhnÃÂÃÂÃÂÃÂ¡n PhÃÂÃÂÃÂÃÂ¥draig Ui Chaoimh 1) 
F:file ID: cre.3/171padr_ok1
R:slide
Q:180
M:12/8
L:1/8
K:D
FEF A2F E3 E2F|G3-GFE F3-F2A|
d2e f2d cBc e2c|1 B3 BcB A3 A3:|
[2 B3 BcB A3 A2|:d|e3 ede f3 fec|
d3 dcB c3 c2B|d2e f2d cBc e2c|
[1 B3 BcB A3 A2:|2 B3 BcB A3 A3 |]

%%%

